archdroid-icon-theme/Archdroid-Amber/mimetypes/scalable/image-bmp.svg

<svg fill="#2196f3" height="48" viewBox="0 0 48 48" width="48" xmlns="http://www.w3.org/2000/svg"><path d="m10 6c-2.21 0-4 1.79-4 4v28c0 2.21 1.79 4 4 4h28c2.21 0 4-1.79 4-4v-28c0-2.21-1.79-4-4-4zm2.134766 2.939453h1.482422v3.667969c.20345-.280762.447591-.495931.732421-.646484.284831-.150554.617676-.226563.996094-.226563.826009 0 1.462565.32194 1.910156.964844.451661.642903.677735 1.492838.677735 2.550781v.128906c0 .964356-.226074 1.742025-.677735 2.332032-.447591.585937-1.080566.878906-1.898437.878906-.41097 0-.769043-.083171-1.074219-.25-.301107-.16683-.552409-.412923-.755859-.734375l-.148438.855469h-1.24414zm10.455078 2.794922c.431315 0 .802083.097656 1.111328.292969.309245.195312.54069.488281.695312.878906.203451-.366211.472982-.651855.806641-.859375s.724284-.3125 1.171875-.3125c.663249 0 1.185872.227865 1.568359.683594.386556.45166.580079 1.138834.580079 2.0625v3.980469h-1.484376v-3.986329c0-.561523-.097656-.955729-.292968-1.183593-.191244-.227865-.480632-.341797-.867188-.341797-.317383 0-.584961.084961-.804687.255859-.219727.170899-.378907.400554-.476563.689453 0 .061035.001791.115397.00586.160157.004069.044759.005859.086263.005859.126953v4.279297h-1.482422v-3.986329c0-.541178-.099446-.930013-.298828-1.166015-.195313-.240072-.484701-.359375-.867187-.359375-.301107 0-.557943.059733-.769532.177734-.207519.113932-.37207.276693-.49414.488281v4.845704h-1.482422v-6.603516h1.355468l.078126.859375c.215657-.313314.486979-.553711.8125-.724609.32552-.170899.70166-.257813 1.128906-.257813zm10.693359 0c.813802 0 1.446777.32373 1.898438.970703.455729.642904.683593 1.491048.683593 2.544922v.128906c0 .960287-.226074 1.734212-.677734 2.324219s-1.081055.886719-1.886719.886719c-.374349 0-.705241-.068848-.99414-.203125-.2889-.134278-.536621-.33138-.744141-.591797v3.205078h-1.484375v-9.142578h1.251953l.146484.830078c.211589-.309245.466635-.546224.763672-.708984.301107-.162761.648275-.244141 1.042969-.244141zm-18.310547 1.214844c-.32959 0-.606282.074219-.830078.220703-.219726.146484-.395182.348958-.52539.609375v2.771484c.126139.264486.301595.470703.52539.617188.223796.142415.504069.21289.841797.21289.512695 0 .885254-.179036 1.117187-.537109.231934-.362142.347657-.850423.347657-1.464844v-.128906c0-.687663-.117513-1.242839-.353516-1.666016-.236002-.423177-.610351-.634765-1.123047-.634765zm17.896485 0c-.309245 0-.571452.066894-.78711.201172-.215657.130208-.389323.312825-.519531.548828v2.986328c.130208.231933.303874.41097.519531.537109.215658.122071.481446.181641.798828.181641.504558 0 .880697-.184408 1.128907-.554688.252278-.374349.378906-.86442.378906-1.470703v-.128906c0-.675456-.128418-1.227051-.384766-1.654297-.252278-.431315-.630208-.646484-1.134765-.646484zm-3.869141 11.050781 9 12h-28l7-9 5 6.009766z" fill="#2196f3"/></svg>

<svg fill="#2196f3" height="48" version="1.1" viewBox="0 0 48 48" width="48" xmlns="http://www.w3.org/2000/svg"><path d="M10 6C7.79 6 6 7.79 6 10L6 38C6 40.21 7.79 42 10 42L38 42C40.21 42 42 40.21 42 38L42 10C42 7.79 40.21 6 38 6L10 6zM12.134766 8.939453L13.617188 8.939453 13.617188 12.607422C13.820638 12.32666 14.064779 12.111491 14.349609 11.960938 14.63444 11.810384 14.967285 11.734375 15.345703 11.734375 16.171712 11.734375 16.808268 12.056315 17.255859 12.699219 17.70752 13.342122 17.933594 14.192057 17.933594 15.25L17.933594 15.378906C17.933594 16.343262 17.70752 17.120931 17.255859 17.710938 16.808268 18.296875 16.175293 18.589844 15.357422 18.589844 14.946452 18.589844 14.588379 18.506673 14.283203 18.339844 13.982096 18.173014 13.730794 17.926921 13.527344 17.605469L13.378906 18.460938 12.134766 18.460938 12.134766 8.939453zM22.589844 11.734375C23.021159 11.734375 23.391927 11.832031 23.701172 12.027344 24.010417 12.222656 24.241862 12.515625 24.396484 12.90625 24.599935 12.540039 24.869466 12.254395 25.203125 12.046875 25.536784 11.839355 25.927409 11.734375 26.375 11.734375 27.038249 11.734375 27.560872 11.96224 27.943359 12.417969 28.329915 12.869629 28.523438 13.556803 28.523438 14.480469L28.523438 18.460938 27.039062 18.460938 27.039062 14.474609C27.039062 13.913086 26.941406 13.51888 26.746094 13.291016 26.55485 13.063151 26.265462 12.949219 25.878906 12.949219 25.561523 12.949219 25.293945 13.03418 25.074219 13.205078 24.854492 13.375977 24.695312 13.605632 24.597656 13.894531 24.597656 13.955566 24.599447 14.009928 24.603516 14.054688 24.607585 14.099447 24.609375 14.140951 24.609375 14.181641L24.609375 18.460938 23.126953 18.460938 23.126953 14.474609C23.126953 13.933431 23.027507 13.544596 22.828125 13.308594 22.632812 13.068522 22.343424 12.949219 21.960938 12.949219 21.659831 12.949219 21.402995 13.008952 21.191406 13.126953 20.983887 13.240885 20.819336 13.403646 20.697266 13.615234L20.697266 18.460938 19.214844 18.460938 19.214844 11.857422 20.570312 11.857422 20.648438 12.716797C20.864095 12.403483 21.135417 12.163086 21.460938 11.992188 21.786458 11.821289 22.162598 11.734375 22.589844 11.734375zM33.283203 11.734375C34.097005 11.734375 34.72998 12.058105 35.181641 12.705078 35.63737 13.347982 35.865234 14.196126 35.865234 15.25L35.865234 15.378906C35.865234 16.339193 35.63916 17.113118 35.1875 17.703125 34.73584 18.293132 34.106445 18.589844 33.300781 18.589844 32.926432 18.589844 32.59554 18.520996 32.306641 18.386719 32.017741 18.252441 31.77002 18.055339 31.5625 17.794922L31.5625 21 30.078125 21 30.078125 11.857422 31.330078 11.857422 31.476562 12.6875C31.688151 12.378255 31.943197 12.141276 32.240234 11.978516 32.541341 11.815755 32.888509 11.734375 33.283203 11.734375zM14.972656 12.949219C14.643066 12.949219 14.366374 13.023438 14.142578 13.169922 13.922852 13.316406 13.747396 13.51888 13.617188 13.779297L13.617188 16.550781C13.743327 16.815267 13.918783 17.021484 14.142578 17.167969 14.366374 17.310384 14.646647 17.380859 14.984375 17.380859 15.49707 17.380859 15.869629 17.201823 16.101562 16.84375 16.333496 16.481608 16.449219 15.993327 16.449219 15.378906L16.449219 15.25C16.449219 14.562337 16.331706 14.007161 16.095703 13.583984 15.859701 13.160807 15.485352 12.949219 14.972656 12.949219zM32.869141 12.949219C32.559896 12.949219 32.297689 13.016113 32.082031 13.150391 31.866374 13.280599 31.692708 13.463216 31.5625 13.699219L31.5625 16.685547C31.692708 16.91748 31.866374 17.096517 32.082031 17.222656 32.297689 17.344727 32.563477 17.404297 32.880859 17.404297 33.385417 17.404297 33.761556 17.219889 34.009766 16.849609 34.262044 16.47526 34.388672 15.985189 34.388672 15.378906L34.388672 15.25C34.388672 14.574544 34.260254 14.022949 34.003906 13.595703 33.751628 13.164388 33.373698 12.949219 32.869141 12.949219zM29 24L38 36 10 36 17 27 22 33.009766 29 24z"/></svg>
